X:1
T:Title
%%score { 1 | 2 }
L:1/8
M:3/4
K:Ab
V:1 treble nm="Grand Piano"
V:2 bass 
V:1
 z2 z2[Q:1/4=110] [CE]2 | [CE]2 [CA]2 [DB]2 | [Ec]3 [DB] [CA]2 | B2 A2 G2 | [CA]4 [CE]2 | %5
 [CE]2 [CA]2 [DB]2 | [Ec]3 [B,EB] [CEA]2 | [EG]2 [FA]2 [=DF]2 |[M:2/4] E4 |[M:1/4] E2 | %10
[M:3/4] E2 G2 B2 | d4 cB | A2 G2 A2 | B4 E2 | [CA]2 [DB]2 [Ec]2 | [Fd]3 [Fc] [FB]2 | A2 B2 G2 | %17
 [CA]4 z2 | [Ec]3 [DB] [CA]2 | [Ec]3 [DB] [CA]2 | [Fd]2 [Ec]2 [=D_c]2 | [Ec]4 [Ec]2 | %22
 [EA]2 [EA]2 [EA]2 | [FB]2 [FB]2 [FA]2 | G2 F2 G2 | [CA]6 |] %26
V:2
 z2 z2 [A,,A,]2 | [A,,A,]2 [A,,A,]2 [A,,A,]2 | [A,,A,]3 [A,,A,] [A,,A,]2 | [E,D]2 [E,C]2 [E,B,]2 | %4
 [A,,E,]4 [A,,A,]2 | [A,,A,]2 [A,,A,]2 [A,,A,]2 | [A,,A,]3 A,, A,,2 | [B,,B,]2 [B,,B,]2 [B,,A,]2 | %8
[M:2/4] [E,G,]4 |[M:1/4] [E,G,]2 |[M:3/4] [E,G,]2 [E,B,E]2 [E,G,E]2 | [E,B,E]4 [E,A,E][E,G,D] | %12
 [E,A,C]2 [E,B,D]2 [E,A,C]2 | [E,G,E]4 [E,G,]2 | [A,,A,]2 [A,,A,]2 [A,,A,]2 | %15
 [D,A,]3 [D,A,] [D,B,]2 | [E,CE]2 [E,DE]2 [E,B,D]2 | [A,,A,]4 z2 | [A,,A,]3 [A,,A,] [A,,A,]2 | %19
 [A,,A,]3 [A,,A,] [A,,A,]2 | [A,,A,]2 [A,,A,]2 [A,,A,]2 | [A,,A,]4 [A,,A,]2 | %22
 [C,A,]2 [C,A,]2 [C,A,]2 | [D,D]2 [D,D]2 [D,D]2 | [E,B,D]2 [E,B,D]2 [E,B,D]2 | [A,,A,]6 |] %26

